X:1
T:James Gibb editions
T:Psalm 7 (Becker) - Schütz
%%score [ ( 1 2 ) ( 3 4 ) ]
L:1/8
Q:1/4=108
M:2/2
K:C
V:1 treble nm="Soprano Alto"
V:2 treble 
V:3 bass nm="Tenor Bass"
V:4 bass 
V:1
"^Cornelius Becker\n(1561-1604)""^Heinrich Schütz\n(1585-1672)""^Psalm 7, SWV 103" G4 F4 | %1
w: ~Auf dich|
w: er- rett|
 F4 E2 G2 | A2 B2 c4 | c4 B2 d2 | c2 A2 B4 | A8 :|[M:2/2] F4 _B2 A2 | G4 c4 | B2 ^c2 d4 | %9
w: trau ich, mein|Herr und Gott,|wollst mir dein|Hilf be- wei-|sen,|mein ar- me|Seel mit|Un- ge- stüm,|
w: mich von der|Fein- de Rott,|daß sie nicht|nie- der- rei-|ßen||||
 D4 A2 G2 | F4 | _B4 A2 G2 | F4 A4 | c2 d2 B2 G2 x2 | A4 G8 |] %15
w: mit grau- sam|Zorn|und Lö- wen-|grimm, weil|kein Ret- tung vor-|han- den.|
w: ||||||
V:2
 D4 D4 | C4 C2 G,2 | C2 G2 G4 | E4 D2 F2 | E2 E2 E4 | E8 :|[M:2/2] D4 _B,2 C2 | C4 E4 | E2 E2 D4 | %9
 F4 F2 E2 | D4 | F4 F2 E2 | F4 F4 | E2 D2 D2 D2 x2 | D4 D8 |] %15
V:3
 B,4 A,4 | A,4 G,2 C2 | A,2 D2 C4 | G,4 G,2 A,2 | A,2 A,4 ^G,2 | A,8 :|[M:2/2] D,4 D,2 F,2 | %7
 E,4 A,4 | ^G,2 A,2 A,4 | D4 C2 C2 | A,4 | %11
"^2. Herr, mein Gott, hab ich bös getan, ist Unrecht in mein Händen,\nhab ich Untreu am eignen Mann erzeigt, jemand wollt schänden,\nso hab der Feind die Seele mein, das Leben soll verloren sein,\nAmt, Ehr und Gut desgleichen.\n\n4. Herr Gott, du richtest recht die Leut', dir ich befehl die Sache,\nricht mich nach meiner G'rechtigkeit, mein Unschuld kundbar mache,\nwehr einmal doch der Bösen Trutz, und nimm das Recht in deinen Schutz,\ndu, Herr, prüfst Herz und Nieren.\n\n5. Gott ist mein Schild, der allezeit aus Not hilft frommen Herzen,\nder g'rechte Richter täglich dräut, da ist fürwahr kein Scherzen,\ndein'n Namen will ich preisen sehr und loben dich, o Gott, mein Herr,\ndu bist der Allerhöchste." D4 C2 C2 | %12
 A,4 C4 | C2 A,2 G,2 G,4 | ^F,2 G,8 x2 |] %15
V:4
 G,4 D,4 | F,4 C,2 E,2 | F,2 G,2 C,4 | C,4 G,2 D,2 | A,2 A,,2 E,4 | A,,8 :| %6
[M:2/2] _B,,4 G,,2 F,,2 | C,4 A,,4 | E,2 A,,2 D,4 | D,4 F,2 C,2 | D,4 | _B,,4 F,,2 C,2 | F,4 F,4 | %13
 A,2 ^F,2 G,2 B,,2 x2 | D,4 G,,8 |] %15

